X:1
T:Title
%%score { ( 1 4 ) | ( 2 3 ) }
L:1/8
Q:1/4=104
M:2/2
K:D
V:1 treble nm="Grand Piano"
V:4 treble 
V:2 bass 
V:3 bass 
V:1
 [FA]3 [FA] F2 D2 | F2 [FA]2 [Fd]4 | B3 B G2 F2 | [CE]8 | [A,DF]2 [A,DF]2 [DFA]2 [DFA]2 | %5
w: W.~J.~Kirkpatrick * * *|||||
 [DAd]2 [DAd]2 .[DGB]4 | [^Ge]3 [Gd] [EGc]2 [DGB]2 | .A4 z4 | z4 [Fd]4 | B2 B2 d4 | A2 A2 G2 F2 | %11
w: ||||||
 z2 AA A2 A2 | F2 [FA]2 [Fd]4 | B2 B2 e4 | d2 d2 [Ec]2 [Gc]2 | [Fd]8 |] %16
w: |||||
V:2
 [D,D]3 [D,D] [D,A,D]2 [D,F,A,]2 | [D,A,D]2 [D,D]2 [D,A,]4 | [G,D]3 [G,D] [E,A,C]2 [D,A,D]2 | %3
 z4 A,4 | D,2 D,2 D,2 D,2 | F,2 F,2 z2 B,2 | [E,B,]3 [E,B,] E,2 E,2 | z2[K:treble] AA A2 A2 | %8
 [D,D]2 [D,D]2 .[D,A,]4 | [G,DG]2 [G,DG]2 [G,B,G]4 | [F,D]2 [F,A,D]2 [E,A,C]2 [D,A,D]2 | [A,,A,]8 | %12
 [D,A,D]2 [D,D]2 [D,D]4 | [G,DG]2 [G,DG]2 [G,B,G]4 | [A,F]2 [A,F]2[K:bass] [A,,A,]2 [A,,A,]2 | %15
 [D,A,]8 |] %16
V:3
 x8 | x8 | x8 | [A,,A,]4 z G,F,E, | x8 | z4 G,4 | x8 | A,,8[K:treble] | x8 | x8 | x8 | x8 | x8 | %13
 x8 | x4[K:bass] x4 | x8 |] %16
V:4
 x8 | x8 | x8 | x8 | x8 | x8 | x8 | [A,CE]8 | [FA]2 [FA]2 z2 D2 | x8 | x8 | [CE]8 | x8 | x8 | x8 | %15
 x8 |] %16

